X: 31
T: Missa brevis &mdash; Gloria
C: Gaspar van Weerbeke
%%abc-version 2.0
%%abcx-abcm2ps-target-version 5.9.1 (29 Sep 2008)
%%abc-creator hum2abc beta
%%abcx-conversion-date 2022/03/06 13:05:55
%%abc-copyright Copyright 2016, Kolb, Paul
%%abc-edited-by Zybina, Karina
%%humdrum-veritas 2698808102
%%humdrum-veritas-data 868371224
%%linebreak <none>
%%barnumbers 0
L: 1/4
M: 2/2
N: Derived from Gas0201b-Missa_brevis-Gloria.krn
%%staves [1 2 3 4]
V: 1 clef=treble
V: 2 clef=treble-8
V: 3 clef=treble-8
V: 4 clef=bass
K: F
[V:1] G2GG- | 
[V:2] d2dd- | 
[V:3] G2GB- | 
[V:4] G,2G,G,- | 
[V:1] GGF2 | 
[V:2] d_ed2 | 
[V:3] BcA2 | 
[V:4] G,C,D,2 | 
[V:1] GA2F | 
[V:2] BA2A | 
[V:3] Bc2A | 
[V:4] G,F,2F, | 
[V:1] G>FD2 | 
[V:2] B>c d/_e/f- | 
[V:3] G>AB2 | 
[V:4] _E,>D,B,,2 | 
[V:1] D/_E/F/G/AB | 
[V:2] fdcB | 
[V:3] B2AG | 
[V:4] B,,/C,/D,/_E,/F,G, | 
[V:1] AB2A/G/ | 
[V:2] f2f3/_e/ | 
[V:3] cd2c/B/ | 
[V:4] F,/_E,/D,/C,<B,,C,/ | 
[V:1] ^FG2F | 
[V:2] dcdd | 
[V:3] AGA2 | 
[V:4] D,_E,D,2 | 
[V:1] Gddd | 
[V:2] ddgd | 
[V:3] G2zg | 
[V:4] zB,B,B, | 
[V:1] BBcc | 
[V:2] ddcc | 
[V:3] ggee | 
[V:4] G,G,A,A, | 
[V:1] ddB2 | 
[V:2] A2Gg | 
[V:3] ffgg | 
[V:4] D,D,G,2 | 
[V:1] zcBd- | 
[V:2] gggd- | 
[V:3] e2dd | 
[V:4] C,C,G,3/F,/ | 
[V:1] dBA2- | 
[V:2] d2d2 | 
[V:3] fgf2- | 
[V:4] D,G,D,2- | 
[V:1] AAAA | 
[V:2] zddd | 
[V:3] ffff | 
[V:4] D,D,D,D, | 
[V:1] B>cde- | 
[V:2] B>G A/B/c- | 
[V:3] gd2g | 
[V:4] G,>F,D,C,- | 
[V:1] ed2^c | 
[V:2] cA>Bc | 
[V:3] afe2 | 
[V:4] C,D,A,2 | 
[V:1] d2z2 | 
[V:2] A2G2 | 
[V:3] d2zg | 
[V:4] D,2z2 | 
[V:1] zdcA | 
[V:2] z4 | 
[V:3] fdef | 
[V:4] z4 | 
[V:1] BcAB | 
[V:2] z4 | 
[V:3] def3/e/ | 
[V:4] z4 | 
[V:1] cB/A/G2 | 
[V:2] z2zg | 
[V:3] c2z2 | 
[V:4] zCB,G, | 
[V:1] z4 | 
[V:2] fdef | 
[V:3] z4 | 
[V:4] A,B,G,A, | 
[V:1] z4 | 
[V:2] def3/e/ | 
[V:3] z4 | 
[V:4] B,A,/G,/F,2 | 
[V:1] zcBG | 
[V:2] c2z2 | 
[V:3] z2zg | 
[V:4] z4 | 
[V:1] A2Gc | 
[V:2] z4 | 
[V:3] fd_e2 | 
[V:4] z4 | 
[V:1] BGAF | 
[V:2] z4 | 
[V:3] dgfd | 
[V:4] z4 | 
[V:1] G/F/B2A | 
[V:2] z4 | 
[V:3] _e/d/c/B/c2 | 
[V:4] z4 | 
[V:1] B2z2 | 
[V:2] z2zd | 
[V:3] B2z2 | 
[V:4] zG,F,D, | 
[V:1] z4 | 
[V:2] cAB2 | 
[V:3] z4 | 
[V:4] _E,F,D,G, | 
[V:1] z4 | 
[V:2] AFG/F/B- | 
[V:3] z4 | 
[V:4] F,D,_E,/D,/C,/B,,/ | 
[V:1] z4 | 
[V:2] BAB2 | 
[V:3] z_edB | 
[V:4] C,2B,,2 | 
[V:1] z_edB | 
[V:2] z4 | 
[V:3] c2BG | 
[V:4] z4 | 
[V:1] c2BA/G/ | 
[V:2] z4 | 
[V:3] AFG/A/B/c/ | 
[V:4] z4 | 
[V:1] F2D/E/F/G/ | 
[V:2] A2AA- | 
[V:3] d>efd | 
[V:4] D,2D,2 | 
[V:1] ABAB- | 
[V:2] AGAG | 
[V:3] fgfg | 
[V:4] z2D,G,- | 
[V:1] B/A/d2^c | 
[V:2] g2a2 | 
[V:3] d2e2 | 
[V:4] G,/A,/B,A,2 | 
[V:1] d2B2 | 
[V:2] f2gd- | 
[V:3] d2d2 | 
[V:4] B,2G,2 | 
[V:1] A2B2 | 
[V:2] d2d2 | 
[V:3] f2g2 | 
[V:4] D,2G,2 | 
[V:1] A2z2 | 
[V:2] d2BG | 
[V:3] f2zg | 
[V:4] D,2z2 | 
[V:1] zdAA | 
[V:2] B2c2 | 
[V:3] ddf2 | 
[V:4] zG,F,F, | 
[V:1] c2B2 | 
[V:2] zcdd | 
[V:3] _e2zd | 
[V:4] C,2G,2 | 
[V:1] zAcc | 
[V:2] d>cA2 | 
[V:3] fff3/_e/ | 
[V:4] D,2z2 | 
[V:1] c>BG3/A/ | 
[V:2] z4 | 
[V:3] c>d _e/f/g- | 
[V:4] z4 | 
[V:1] B/c/d2A- | 
[V:2] z2a2 | 
[V:3] gdf2 | 
[V:4] z2D,2 | 
[V:1] AcBA- | 
[V:2] fg2f- | 
[V:3] c_ed2 | 
[V:4] F,C,G,D, | 
[V:1] AG2^F | 
[V:2] f/_e/d3 | 
[V:3] cBA2 | 
[V:4] F,G,D,2 | 
[V:1] G4 ||  
[V:2] d4 ||  
[V:3] G4 ||  
[V:4] G,4 ||  
[V:1] [M:2/2]A2AA- | 
[V:2] [M:2/2]f2ff- | 
[V:3] [M:2/2]d2dd- | 
[V:4] [M:2/2]D,2D,D,- | 
[V:1] AABB | 
[V:2] ffgg | 
[V:3] ddBB | 
[V:4] D,D,G,G, | 
[V:1] G2F2 | 
[V:2] _e2d2 | 
[V:3] c2A2 | 
[V:4] C,2D,2 | 
[V:1] BAGF | 
[V:2] dddd | 
[V:3] GABA | 
[V:4] G,F,G,D, | 
[V:1] G2F2 | 
[V:2] _e2d2 | 
[V:3] BcA2 | 
[V:4] G,C,D,2 | 
[V:1] z4 | 
[V:2] GB2c | 
[V:3] z4 | 
[V:4] _E,3D,/C,/ | 
[V:1] z4 | 
[V:2] d3c/B/ | 
[V:3] z4 | 
[V:4] B,,D,2_E, | 
[V:1] z4 | 
[V:2] Ac2d | 
[V:3] z4 | 
[V:4] F,3_E,/D,/ | 
[V:1] z4 | 
[V:2] _e3d/c/ | 
[V:3] z4 | 
[V:4] C,_E,2F, | 
[V:1] z4 | 
[V:2] Bd2_e | 
[V:3] z4 | 
[V:4] G,3F,/_E,/ | 
[V:1] z4 | 
[V:2] fd2c/B/ | 
[V:3] z4 | 
[V:4] D,B,>A,G,- | 
[V:1] z4 | 
[V:2] A2G2 | 
[V:3] z4 | 
[V:4] G,^F,G,2 | 
[V:1] A2AA | 
[V:2] c2cc | 
[V:3] f2ff | 
[V:4] F,2F,F, | 
[V:1] BBBB | 
[V:2] ffff | 
[V:3] dddd | 
[V:4] B,,B,,B,,B,, | 
[V:1] G2DG | 
[V:2] _e2dc- | 
[V:3] c2AG- | 
[V:4] C,2D,_E,- | 
[V:1] CD_E2 | 
[V:2] cB2A | 
[V:3] GF2_E | 
[V:4] E,/D,/B,,C,2 | 
[V:1] D4 | 
[V:2] B3G | 
[V:3] F2z2 | 
[V:4] B,,4 | 
[V:1] z4 | 
[V:2] A2z2 | 
[V:3] c2d2 | 
[V:4] zF,2G,- | 
[V:1] z4 | 
[V:2] z4 | 
[V:3] ec2f- | 
[V:4] G,A,F,2 | 
[V:1] z4 | 
[V:2] z4 | 
[V:3] fe/d/ef- | 
[V:4] B,2G,A,- | 
[V:1] z4 | 
[V:2] z4 | 
[V:3] fd2^c | 
[V:4] A,F,E,2 | 
[V:1] z2A2 | 
[V:2] A2cd | 
[V:3] d2z2 | 
[V:4] D,2z2 | 
[V:1] cd2c/B/ | 
[V:2] cB2A/G/ | 
[V:3] z4 | 
[V:4] z4 | 
[V:1] AB2A/G/ | 
[V:2] FG>AB/c/ | 
[V:3] z4 | 
[V:4] z4 | 
[V:1] F2F2- | 
[V:2] d2d2- | 
[V:3] z2A2- | 
[V:4] z2D,2- | 
[V:1] FFFG- | 
[V:2] ddd_e- | 
[V:3] AAAc- | 
[V:4] D,D,D,C,- | 
[V:1] GBAG- | 
[V:2] ef2_e- | 
[V:3] cdc2- | 
[V:4] C,B,,F,C, | 
[V:1] GF2E | 
[V:2] ec3 | 
[V:3] cAG2 | 
[V:4] _E,F,C,2 | 
[V:1] F2zc- | 
[V:2] Af2_e/d/ | 
[V:3] F2z2 | 
[V:4] z4 | 
[V:1] cB/A/Gd- | 
[V:2] cg2f/_e/ | 
[V:3] z4 | 
[V:4] z4 | 
[V:1] dc/B/Af | 
[V:2] da2g/f/ | 
[V:3] z4 | 
[V:4] z4 | 
[V:1] ed2^c | 
[V:2] g>fe2 | 
[V:3] z4 | 
[V:4] z2A,2 | 
[V:1] d2z2 | 
[V:2] d4 | 
[V:3] z2g2 | 
[V:4] F,G,2F,/E,/ | 
[V:1] d2B2 | 
[V:2] z4 | 
[V:3] f2d_e- | 
[V:4] D,2G,2 | 
[V:1] _e2dc- | 
[V:2] g2gc | 
[V:3] ed/c/BA | 
[V:4] C,2G,A, | 
[V:1] cB2A | 
[V:2] gf2f | 
[V:3] d2c2 | 
[V:4] G,B,F,2 | 
[V:1] BBAB- | 
[V:2] d2f2 | 
[V:3] Bdcd- | 
[V:4] G,2F,D, | 
[V:1] B/A/G2^F | 
[V:2] fd3 | 
[V:3] dc/B/A2 | 
[V:4] B,,>C,D,2 | 
[V:1] [M:3/2]G6 | 
[V:2] [M:3/2]d6 | 
[V:3] [M:3/2]G4B2 | 
[V:4] [M:3/2]z2z2G,2 | 
[V:1] z6 | 
[V:2] z6 | 
[V:3] B4B2 | 
[V:4] G,4G,2 | 
[V:1] z6 | 
[V:2] z6 | 
[V:3] A2>B2c2 | 
[V:4] F,2A,3G, | 
[V:1] z6 | 
[V:2] z6 | 
[V:3] d4^c2 | 
[V:4] F,2E,4 | 
[V:1] z2z2A2 | 
[V:2] z2z2d2 | 
[V:3] d4d2 | 
[V:4] D,4D,2 | 
[V:1] B4B2 | 
[V:2] B2>c2de | 
[V:3] d4B2 | 
[V:4] G,4G,2 | 
[V:1] A2>B2c2 | 
[V:2] f4g2 | 
[V:3] c2>d2e2 | 
[V:4] F,4E,2 | 
[V:1] d4c2 | 
[V:2] a4g2 | 
[V:3] f4e2 | 
[V:4] D,4E,2 | 
[V:1] B2>A2G2 | 
[V:2] g4G2 | 
[V:3] d2B2c2 | 
[V:4] G,2>F,2E,2 | 
[V:1] F2>G2A2 | 
[V:2] A2>B2c2 | 
[V:3] d4_e2 | 
[V:4] D,4C,2 | 
[V:1] B4A2 | 
[V:2] d2f3_e | 
[V:3] f2d3c | 
[V:4] B,,C,D,_E,F,2 | 
[V:1] G4^F2 | 
[V:2] d6 | 
[V:3] B2A4 | 
[V:4] G,2D,4 | 
[V:1] G4 |]  
[V:2] d4 |]  
[V:3] G4 |]  
[V:4] G,4 |]  


